src/main/resources/icons/AllIcons/nodes/jvm.svg

<svg width="16" height="16" viewBox="0 0 16 16" fill="none" xmlns="http://www.w3.org/2000/svg">
<path fill-rule="evenodd" clip-rule="evenodd" d="M2 13H14V3H2V13Z" fill="#40B6E0" fill-opacity="0.6"/>
<path d="M3.56097 10.5C4.01749 10.5 4.40227 10.3521 4.66966 10.0634C4.93705 9.77465 5.1001 9.33803 5.1001 8.75352V5.5H4.27184V8.72535C4.27184 9.38732 3.97836 9.69718 3.54792 9.69718C3.16314 9.69718 2.89575 9.48592 2.62836 9.11268L2.1001 9.70423C2.4001 10.1479 2.85662 10.5 3.56097 10.5Z" fill="#231F20" fill-opacity="0.7"/>
<path fill-rule="evenodd" clip-rule="evenodd" d="M9.69995 5.5H10.4488L11.7 7.5L12.8832 5.5H13.7V10.5H12.9V7.2L11.7 9L10.5 7.2V10.5H9.69995V5.5Z" fill="#231F20" fill-opacity="0.7"/>
<path d="M7.1073 10.5H7.7928L9.60005 5.5H8.77121L7.46251 9.3156L6.14759 5.5H5.30005L7.1073 10.5Z" fill="#231F20" fill-opacity="0.7"/>
</svg>

<svg width="16" height="16" viewBox="0 0 16 16" fill="none" xmlns="http://www.w3.org/2000/svg"><rect id="frame" width="16" height="16" fill="none"/><path fill-rule="evenodd" clip-rule="evenodd" d="M2 13h12V3H2v10z" fill="#40B6E0" fill-opacity=".6"/><path d="M3.561 10.5c.456 0 .841-.148 1.109-.437.267-.288.43-.725.43-1.31V5.5h-.828v3.225c0 .662-.294.972-.724.972-.385 0-.652-.211-.92-.584l-.528.591c.3.444.757.796 1.461.796z" fill="#231F20" fill-opacity=".7"/><path fill-rule="evenodd" clip-rule="evenodd" d="M9.7 5.5h.749l1.251 2 1.183-2h.817v5h-.8V7.2L11.7 9l-1.2-1.8v3.3h-.8v-5z" fill="#231F20" fill-opacity=".7"/><path d="M7.107 10.5h.686l1.807-5h-.829L7.463 9.316 6.148 5.5H5.3l1.807 5z" fill="#231F20" fill-opacity=".7"/></svg>
